X:1
T:Ave maris stella - Biordi
T:#
%%score [ 1 2 3 4 ]
L:1/8
Q:1/4=200
M:4/4
K:C
V:1 treble nm="Soprano" snm="S"
V:2 treble nm="Alto" snm="A"
V:3 treble-8 nm="Tenor" snm="T"
V:4 bass nm="Bass" snm="B"
V:1
 x16 x4 ||"^Ave maris stella""^Giovanni Biordi\n(1691-1748)"[Q:1/4=200][Q:1/4=200] (A8 c8- | %2
w: |De\- *|
 c4) B4 (c6 B2 | A16) | G16 | G8 G8- |[Q:1/4=200] G8 z8 | z4 G8 F4 | E8 F8 | (A16 | F6 G2) A8 | %11
w: * i Ma\- *||ter|al- ma,||De- i|Ma- ter|al\-|* * ma,|
 A16 | G8 (G6 F2 | E8 A8- | A4 A4 A8 | G16 | z16 | z4 (A6 B2) c4 | d6 c2 B4) A4 | (A4 ^G2 ^F2 G8) | %20
w: At-|que sem\- *||* per Vir-|go,||Fe\- * lix|coe\- * * li|por\- * * *|
 A8 z4 A4- | A4 B4 (c8- | c4 B2 A2) B4 (c4- | c4 B4) c8 | c8 A8 | A12 A4 | A16 | A16 || z16 | z16 | %30
w: ta, at\-|* que sem\-|* * * per Vir\-|* * go,|fe- lix|coe- li|por-|ta.|||
 z16 | z4 A8 A4 | c16 | B8 d8 | A4 A8 A4 | G8 G4 (c4- | c4 B2 A2 B6 A2 | ^G4 A8 G4) | A16 || %39
w: |Su- mens|il-|lud A-|ve, Ga- bri-|e- lis o\-|||re,|
[M:3/1][Q:1/4=400] A16 A8 | A16 A8 | (D12 E4 F8- | %42
w: Fun- da|nos in|pa\- * *|
[M:3/1][Q:1/4=400][Q:1/4=400][Q:1/4=400][Q:1/4=400] F8 G16 | F16 E8) | D8 F8 G8 | (A12 _B4 c8 | %46
w: ||ce, Mu- tans|E\- * *|
 A16) d8- | d8 c16 | c24 | z8 c8 c8 | A16 A8 | (A8 d16- | d8) ^c16 | A16 A8 | A24 | A8 A8 A8 | %56
w: * vae|* no-|men,|fun- da|nos in|pa\- *|* ce,|mu- tans|E-|vae, mu- tans|
 (F8 G4 A4) _B8- | B8 A16 | A24 ||[Q:1/4=200] d16 | c8 d8 | e8 (c4 d4 | e16 | %63
w: E\- * * vae|* no-|men.|Sol-|ve vin-|cla re\- *||
[Q:1/4=200][Q:1/4=200][Q:1/4=200][Q:1/4=200] A8 B4 A4 | ^G4 A4 B8) | A16 | z16 | d12 c4 | B8 A8 | %69
w: ||is,||Pro- fer|lu- men|
 A16 | A8 G8- | G4 G4 G8 | F8 (A8- | A4 G2 F2 G4 E4 | D12 E4) | F8 F8 | E8 G8- | G8 F8 | %78
w: cae-|cis, pro\-|* fer lu-|men cae\-|||cis, Ma-|la no\-|* stra|
 (A4 G2 F2 G4 c4- | c4 B2 A2 B8) | c4 A8 A4 | G4 E4 (F6 G2 | A4 G2 F2) G8 | z8 z4 c4- | %84
w: pel\- * * * *||le, ma- la|no- stra pel\- *|* * * le,|Bo\-|
 c4 B4 c4 c4 | (c4 d8 c4 | B4 G8 A4 | B4 ^c4 d8) | A16 | z4 d8 c4 | _B8 A8 | (F4 E2 D2 E8) | %92
w: * na cun- cta|po\- * *|||sce,|ma- la|no- stra|pel\- * * *|
 D4 d8 ^c4 | d8 A8 | A16 | A16 || A16 | D4 D4 F8 | F8 E8- | E8 E8 | z4 E8 E4 | E8 A8 | (G8 F8 | %103
w: le, bo- na|cun- cta|po-|sce.|Mon-|stra te es-|se ma\-|* trem,|Su- mat|per te|pre\- *|
 E16 | F6 G2 A8) | A8 z8 | z8 z4 A4- | A4 G4 A4 A4 | (c8 A2 B2 c4- | c4 B2 A2 B8) | c8 z4 c4- | %111
w: ||ces,|su\-|* mat per te|pre\- * * *||ces, Qui|
 c4 (B2 A2) B4 B4 | (d8 A6 B2 | c8) G8 | z16 | z16 | z16 | z16 | z4 A8 ^G4 | A16 | %120
w: * pro * no- bis|na\- * *|* tus,|||||qui pro|no-|
 A4 (F6 E2 F2 G2 | A8 G8- | G8) E8 | z8 z4 G4- | G4 G4 (G6 F2 | E8) E4 (A4- | A4 G4) A4 A4- | %127
w: bis na\- * * *||* tus,|Tu\-|* lit es\- *|* se tu\-|* * us, tu\-|
 A4 A4 A8 | A4 (d8 ^c4) | d16 || z16 | A12 ^G4 | A4 c4 (B4 A4- | A4 ^G2 ^F2 G8) | A8 c8- | %135
w: * lit es-|se tu\- *|us.||Vir- go|sin- gu- la\- *||ris, In\-|
 c4 B4 (c6 B2 | A16) | G16- | G8 G8 | G8 z8 | z4 G8 F4 | (E8 F6 G2 | A8) A8 | F8 A8 | A16 | G16 | %146
w: * ter o\- *||mnes|* mi-|tis,|in- ter|o\- * *|* mnes|mi- tis,|Nos||
 (E8 A8) | A4 A4 A8 | G16 | z16 | z4 A8 c4 | (d6 c2 B4) A4 | (A4 ^G2 ^F2 G8) | A8 z4 A4- | %154
w: cul\- *|pis so- lu-|tos||Mi- tes|fac * * et|ca\- * * *|stos, nos|
 A4 B4 c8 | B8 (c8- | c4 B4) c8 | c8 A8 | A12 A4 | A16 | A16 || d16 | (c8 d8) | (e8 c4 d4 | e16 | %165
w: * cul- pis|so- lu\-|* * tos|mi- tes|fac et|ca-|stos.|Vi-|tam *|prae\- * *||
 A8 B4) A4 | (^G4 A4 B8) | A16 | z16 | d12 c4 | B8 A8 | A16 | A8 G8- | G4 G4 (G8 | F6 G2 A8- | %175
w: * * sta|pu\- * *|ram,||I- ter|pa- ra|tu-|tum, i\-|* ter pa\-||
 A4 G2 F2 G4) E4 | (D12 E4) | F8 F8 | E8 G8- | G8 F8 | (A4 G2 F2 G4 c4- | c4 B2 A2 B8) | c4 A8 A4 | %183
w: * * * * ra|tu\- *|tum, Ut|vi- den\-|* tes|Je\- * * * *||sum, ut vi-|
 G4 E4 (F6 G2 | A4 G2 F2) G8 | z8 z4 c4- | c4 B4 c4 c4 | (c4 d8 c4 | B4 G8 A4 | B4 ^c4 d8) | A16 | %191
w: den- tes Je\- *|* * * sum,|Sem\-|* per col- lae-|te\- * *|||mur,|
 z4 d8 c4 | _B8 A8 | (F4 E2 D2 E8) | D4 d8 ^c4 | d8 A8 | A16 | A16 || z16 | z16 | z16 | A8 A8 | %202
w: Ut vi-|den- tes|Je\- * * *|sum sem- per|col- lae-|te-|mur.||||Sit laus|
 c16 | B8 d8 | A4 A8 A4 | G8 G4 (c4- | c4 B2 A2 B6 A2 | ^G4 A8 G4) ||[M:3/1][Q:1/4=400] A16 A8 | %209
w: De-|o Pa-|tri, Sum- mo|Chri- sto de\-|||cus, Spi-|
 A12 A4 A8 |[M:3/1][Q:1/4=400][Q:1/4=400][Q:1/4=400][Q:1/4=400] (D12 E4 F8- | F8 G16 | F16 E8) | %213
w: ri- tu- i|San\- * *|||
 D8 F8 G8 | (A12 _B4 c8 | A16) d8- | d8 c16 | c24 | z8 z8 c8 | A12 A4 A8 | (A8 d16- | d8) ^c16 | %222
w: cto, Tri- bus|ho\- * *|* nor|* u-|nus,|Spi-|ri- tu- i|San\- *|* cto,|
 A16 A8 | A24 | A8 A8 A8 | F16 _B8- | B8[Q:1/4=395] A16 |[Q:1/4=384] A24 | %228
w: Tri- bus|ho-|nor, Tri- bus|ho- nor|* u-|nus,|
[Q:1/4=375] G8[Q:1/4=370] D8[Q:1/4=366] (d8- |[Q:1/4=363] d4[Q:1/4=361] c4[Q:1/4=356] _B16) | %230
w: A- men, A\-||
[Q:1/4=345] !fermata!A24 |] %231
w: men.|
V:2
 x16 x4 || (E12 ^F4 | G8) E8 | F16 | E8 (D8 | E8) D8- | D8 z4 D4- | D4 ^C4 D8- | D4 =C4 (D6 E2 | %9
w: |De\- *|* i|Ma-|ter al\-|* ma,|* De\-|* i Ma\-|* ter al\- *|
 F4 E2 D2 E8) | D8 z8 | z4 (A,6 B,2 C2 D2 | E8) D8 | (C6 D2 E8 | F4 D4 (C4 F4- | F4 E2 D2) E4 G4- | %16
w: |ma,|At\- * * *|* que|sem\- * *|* per Vir\- *|* * * go, Fe\-|
 G4 G4 E6 D2 | C8 D4) E4 | (F6 E2 D8 | C4 B,2 A,2 B,8) | A,8 z8 | F8 E8 | G8 G8 | G8 E4 E4- | %24
w: * lix coe\- *|* * li|por\- * *||ta,|at- que|sem- per|Vir- go, fe\-|
 E4 E4 F8 | F8 (F8 | E16) | D16 || z16 | z16 | z4 D8 D4 | F16 | E4 (E6 D2 E2 F2 | G8) F8 | %34
w: * lix coe-|li por\-||ta.|||Su- mens|il-|lud A\- * * *|* ve,|
 z4 F8 F4 | E16 | F4 (F6 E2 D2 C2 | B,4 A,4 E8) | E16 ||[M:3/1] ^C16 C8 | D16 C8 | (_B,16 A,8 | %42
w: Ga- bri-|e-|lis o\- * * *||re,|Fun- da|nos in|pa\- *|
[M:3/1] D8 ^C16) | D24 | z16 z8 | z8 F8 E8 | (F12 A4 G8) | F8 E16 | F8 F8 A8 | (G12 F4) E8 | %50
w: |ce,||Mu- tans|E\- * *|vae no-|men, fun- da|nos * in|
 (F16 E8- | E8 F8 G8 | A8) E16 | z16 z8 | z8 E8 E8 | F16 F8 | (D8 E4 F4 G8- | G4) F4 E16 | ^F24 || %59
w: pa\- *||* ce,||mu- tans|E- vae,|E\- * * *|* vae no-|men.|
 z16 | z16 | z8 A8 | G8 E8 | F16 | E16 | E8 A8- | A8 A8 | D8 E8 | (G12 F2 E2 | F4 E2 D2 E8 | %70
w: ||Sol-|ve vin-|cla|re-|is, Pro\-|* fer|lu- men|cae\- * *||
 D6 C2) B,4 B,4- | B,4 B,4 (B,6 C2) | D8 C8 | C12 (C4- | C4 B,2 A,2) B,8 | D16 | (C12 B,4) | C16 | %78
w: * * cis, pro\-|* fer lu\- *|men cae-|cis, ma\-|* * * la|no-|stra *|pel-|
 C4 C8 E4 | D8 G8 | (E8 F8) | C8 z4 (F4- | F4 E2 D2) E8 | G8 E8 | D8 C8 | z8 F8 | D8 E4 F4 | %87
w: le, bo- na|cun- cta|po\- *|sce, ma\-|* * * la|no- stra|pel- le,|Bo-|na cun- cta|
 (G12 F2 E2) | F8 z4 A4- | A4 G4 F4 E4 | (G2 F2 E2 D2 ^C4 D4- | D4 ^C2 B,2) C8 | D8 E8 | F8 F8 | %94
w: po\- * *|sce, ma\-|* la no- stra|pel\- * * * * *|* * * le,|bo- na|cun- cta|
 E16 | D16 || z16 | z8 D8- | D8 A,4 A,4 | C8 C8 | B,8 C8 | z4 E6 D2 D4- | D4 ^C4 (D8- | %103
w: po-|sce.||Mon\-|* stra te|es- se|ma- trem,|Su- mat per|* te pre\-|
 D4 ^C2 B,2 C8 | D6 E2 F4 D4 | C8 F8) | E8 z8 | E8 C8- | C8 D4 E4 | F8 D4 F4- | F4 (E2 D2) E4 E4 | %111
w: |||ces,|su- mat|* per te|pre- ces, Qui|* pro * no- bis|
 (G8 D6 E2 | F8 C8 | z16 | z4 G8 G4 | F4 D4 (C4 F4- | F4 E4) F4 F4- | F4 E4 F8- | F4 E4 D8- | %119
w: na\- * *|* tus,||qui pro|no- bis na\- *|* * tus, Tu\-|* lit es\-||
 D4 (^C2 B,2) C8 | D4 D8 D4 | C8 E8 | D8 C8 | z4 C8 B,4 | D8 E4 D4 | ^C8) C8 | D12 ^C4 | E4 E4 F8 | %128
w: * se * tu-|us, qui pro|no- bis|na- tus,|Tu- lit|es\- * *|* se|tu- us,|tu- lit es-|
 F8 E8 | D16 || D12 ^C4 | D4 F4 (E6 D2 | C2 D2 E2 C2 D4 C4 | B,16 | A,4 E8 E4 | (G8 E8 | F16 | %137
w: se tu-|us.|Vir- go|sin- gu- la\- *|||ris, In- ter|o\- *||
 E8) D8 | E8 D8) | D8 z4 D4- | D4 ^C4 (D8- | D4 =C4 D6 E2 | F4) (E2 D2) E8 | D8 z8 | %144
w: * mnes|mi\- *|tis, in\-|* ter o\-||* mnes * mi-|tis,|
 z4 (A,6 B,2 C2 D2 | E8 D8) | (C6 D2 E8 | F4 D4 C4 (F4- | F4 E2 D2) E4 G4- | G4 G4 E6 D2 | %150
w: Nos * * *||cul\- * *|* pis so- lu\-|* * * tos Mi\-|* tes fac *|
 C8 D4) E4 | (F6 E2 D8 | C4 B,2 A,2 B,8) | A,8 z8 | (F8 E8) | G8 G4 G4 | G8 E4 E4- | E4 E4 F8- | %158
w: * * et|ca\- * *||stos,|nos *|cul- pis so-|lu- tos mi\-|* tes fac|
 F4 F4 (F8 | E16) | ^F16 || z16 | z16 | z8 A8 | G8 E8 | F16 | E16 | E8 A8- | A8 A8 | (D8 E6 F2 | %170
w: * et ca\-||stos.|||Vi-|tam prae-|sta|pu-|ram, I\-|* ter|pa\- * *|
 G12) F4 | E16 | D4 D8 C4 | (B,6 A,2 B,4) ^C4 | D16 | C8 z4 C4- | C4 B,2 (A,2 B,6 C2 | D16 | %178
w: * ra|tu-|tum, i- ter|pa\- * * ra|tu-|tum, Ut|* vi- den\- * *||
 C12) B,4 | C16 | C4 C8 E4 | D8 G8 | (E8 F8) | C8 z4 F4- | F4 (E2 D2) E4 E4 | (G6 F2 E8 | D8) C8 | %187
w: * tes|Je-|sum, ut vi-|den- tes|Je\- *|sum Sem\-|* per * col- lae-|te\- * *|* mur,|
 z8 F8 | D8 E4 F4 | (G12 F2 E2) | F8 z4 A4- | A4 G4 F4 E4 | (G2 F2 E2 D2 ^C4 D4- | D4 ^C2 B,2 C8) | %194
w: sem-|per col- lae-|te\- * *|mur, Ut|* vi- den- tes|Je\- * * * * *||
 D8 E8 | F4 F8 F4 | E16 | D16 || z16 | z16 | D8 D8 | F16 | E4 (E6 D2 E2 F2 | G8 F8 | z8 F8- | %205
w: sum sem-|per col- lae|te-|mur.|||Sit laus|De-|o Pa\- * * *|* tri,|Sum\-|
 F4 E4 E8 | F4 (F6 E2 D2 C2 | B,4 A,4 E8) ||[M:3/1] E16 ^C8 | D12 D4 =C8 |[M:3/1] _B,16 A,8 | %211
w: * mo Chri-|sto de\- * * *||cus, Spi-|ri- tu- i|San\- *|
 D8 ^C16) | D16 z8 | z16 z8 | z8 F8 E8 | (F12 A4 G8) | F8 E16 | F16 A8 | G12 F4 E8 | (F16 E8- | %220
w: |cto,||Tri- bus|ho\- * *|nor u-|nus, Spi-|ri- tu- i|San\- *|
 E8 F8 G8 | A8) E16 | z16 z8 | z8 E8 E8 | F16 E8 | D8 F8 G8- | G4 F4 E16 | ^F16 F8 | G16 (A8- | %229
w: |* cto,||Tri- bus|ho- nor,|Tri- bus ho\-|* nor u-|nus, A-|men, A\-|
 A8 G16) | !fermata!^F24 |] %231
w: |men.|
V:3
 A2 G2 A2 B2 c2 d2 c2 B2 A4 || (c16 | d8) c8 | (c8 d6 c2 | B4 c8) B4 | (c2 G2 c8 B2 A2) | B8 d8 | %7
w: A- ve * ma\- * ris stel\- * la|De\-|* i|Ma\- * *|* * ter|al\- * * * *|ma, De-|
 G8 A8- | A8 A4 (d4- | d4 ^c2 B2 c8) | d16 | z8 c8- | c8 B8 | (c16 | d8 A8 | c8 G8 | %16
w: i Ma\-|* ter al\-||ma,|At\-|* que|sem\-|* per|Vir- go,|
 (E6 F2) G4 A4- | A2 G2 F8) E4 | D16 | E16 | z4 c8 c4 | (d8 G6 F2) | E8 (e8 | d8) c8 | %24
w: Fe\- * lix coe\-|* * * li|por-|ta,|at- que|sem\- * *|per Vir\-|* go,|
 z4 (A6 B2) c4 | d8 A4 (d4- | d4 ^c2 B2 c8) | d16 || z8 A8- | A4 A4 c8 | B4 (B6 A2 B2 c2 | d16) | %32
w: fe\- * lix|coe- li por\-||ta.|Su\-|* mens il-|lud A\- * * *||
 A8 z8 | z4 d8 d4 | c12 A4 | (c16 | A8 d8- | d4 c4 B8) | A16 ||[M:3/1] z16 z8 | z16 z8 | z16 z8 | %42
w: ve,|Ga- bri-|e- lis|o\-|||re,||||
[M:3/1][K:treble-8] z16 z8 | z8 A8 A8 | (_B24 | A16 G8 | F16) _B8- | B8 G16 | F8 A8 F8 | c16 c8 | %50
w: |Mu- tans|E\-||* vae|* no-|men, fun- da|nos in|
 (d16 c8- | c8 _B16) | A8 A8 ^c8 | d16 d8 | =c16 c8 | z8 c8 c8 | d16 d8 | (d8 ^c16) | d24 || D16 | %60
w: pa\- *||ce, mu- tans|E- vae|no- men,|mu- tans|E- vae|no\- *|men.|Sol-|
 (A8 B8) | G8 A8 | (B6 A2 B4 ^c4 | d12 =c4 | B4 A8 ^G4) | A16 | d12 c4 | B8 A8 | (G2 A2 B2 c2 d8- | %69
w: ve *|vin- cla|re\- * * *|||is,|Pro- fer|lu- men|cae\- * * * *|
 d4 ^c2 B2 c8) | d8 z8 | z16 | z8 z4 (F4- | F4 E2 D2) E8 | G16 | F8 (D2 E2 F2 G2 | A8 G6 F2 | %77
w: |cis,||ma\-|* * * la|no-|stra pel\- * * *||
 E4 C4 F8) | C16 | z16 | z4 c8 c4 | (e8 A6 B2 | c8) c8 | (B8 c8) | G8 c8 | A4 A8 A4 | (B12 A4 | %87
w: |le,||ma- la|no\- * *|* stra|pel\- *|le, Bo-|na cun- cta|po\- *|
 G8) A8 | z4 d8 c4 | _B8 A8 | (G8 A8) | A8 z8 | A8 G8 | (F6 G2) A4 (d4- | d4 ^c2 B2 c8) | d16 || %96
w: * sce,|ma- la|no- stra|pel\- *|le,|bo- na|cun\- * cta po\-||sce.|
 z16 | z16 | z16 | z8 z4 A4- | A4 ^G4 A8- | A4 G4 (F8 | E8) D8 | z16 | d16 | A8 A8 | c8 c8 | %107
w: |||Su\-|* mat per|* te pre\-|* ces,||mon-|stra te|es- se|
 B8 A4 A4- | A4 A4 A4 G4 | F16 | G16 | z4 G8 G4 | D4 D4 F8 | C8 z4 c4- | c4 (B2 A2) B4 ^c4 | %115
w: ma- trem, su\-|* mat per te|pre-|ces,|Qui pro|no- bis na-|tus, qui|* pro * no- bis|
 (d8 A6 B2 | c8) A8 | z4 A8 A4 | A8 D8 | (F8 E8) | D8 z4 A4- | A4 A4 c8- | c4 B4 (c6 d2 | e8) d8 | %124
w: na\- * *|* tus,|Tu- lit|es- se|tu\- *|us, qui|* pro no\-|* bis na\- *|* tus,|
 z4 G8 G4 | A8 A8 | _B8 A8 | ^c4 c4 (d4 D2 E2 | F4) F4 A8 | A16 || z16 | z16 | z16 | z4 d8 d4 | %134
w: Tu- lit|es- se|tu- us,|tu- lit es\- * *|* se tu-|us.||||In- ter|
 c8 c8 | d8 c8 | c8 d8 | (B4 c8) B4 | (c12 B2 A2) | B8 d8 | G8 A8- | A8 A4 (d4- | d4 ^c2 B2 c8) | %143
w: o- mnes|mi- tis,|in- ter|o\- * mnes|mi\- * *|tis, in-|ter o\-|* mnes mi\-||
 d16 | z8 (c8- | c8 B8 | c16) | d8 A4 A4 | c8 G8 | E8 G4 (A4- | A2 G2 F8) E4 | D16 | E8 e8 | %153
w: tis,|Nos|||cul- pis so-|lu- tos|Mi- tes fac|* * * et|ca-|stos, nos|
 c8 c4 c4 | d8 G8 | z16 | z16 | z4 A8 c4 | d8 A4 (d4- | d4 ^c2 B2 c8) | d16 || D16 | (A8 B8) | %163
w: cul- pis so-|lu- tos|||mi- tes|fac et ca\-||stos.|Vi-|tam *|
 (G8 A8 | B6 A2 B4 ^c4 | d12) =c4 | (B4 A8 ^G4) | A16 | d12 c4 | (B8 A8 | G2 A2 B2 c2 d8- | %171
w: prae\- *||* sta|pu\- * *|ram,|I- ter|pa\- *||
 d4) (^c2 B2) c8 | d8 z8 | z16 | z8 z4 F4- | F4 (E2 D2) (E6 F2 | G16) | F8 (D2 E2 F2 G2 | %178
w: * ra * tu-|tum,||Ut|* vi\- * den\- *||tes Je\- * * *|
 A8 G6 F2 | E4 C4 F8) | C16 | z16 | z4 c8 c4 | (e8 A6 B2 | c8) c8 | (B8 c8) | G8 c8 | A4 A8 A4 | %188
w: ||sum,||ut vi-|den\- * *|* tes|Je\- *|sum sem-|per col- lae-|
 (B12 A4 | G8 A8 | z4 d8 c4 | _B8 A8 | (G8 A8) | A8 z8 | A8 G8 | F6 G2 A4 d4- | d4 ^c2 B2 c8) | %197
w: te\- *|* mur,|Ut vi-|den- tes|Je\- *|sum|sem- per|col- lae- te\- *||
 d16 || z8 A8 | A8 c8 | B4 (B6 A2 B2 c2 | d16) | A8 z8 | z4 d8 d4 | c4 c4 c8 | c8 c8 | A8 d8- | %207
w: mur.|Sit|laus De-|o Pa\- * * *||tri,|Sum- mo|Chri- sto de-|cus, sum-|mo Chri\-|
 d4 c4 B8 ||[M:3/1] A16 z8 | z16 z8 |[M:3/1][K:treble-8] z16 z8 | z16 z8 | z8 A8 A8 | (_B24 | %214
w: * sto de-|cus,||||Tri- bus|ho\-|
 A16 G8 | F16) _B8- | B8 G16 | F16 F8 | c12 c4 c8 | (d16 c8- | c8 _B16) | A8 A8 ^c8 | d16 d8 | %223
w: |* nor|* u-|nus, Spi-|ri- tu- i|San\- *||cto, Tri- bus|ho- nor|
 c16 c8 | z8 c8 c8 | d16 d8- | d8 ^c16 | d16 (=c8 | _B16) A8 | d24 | !fermata!d24 |] %231
w: u- nus,|Tri- bus|ho- nor|* u-|nus, A\-|* men,|A-|men.|
V:4
 x16 x4 || A,16 | G,8 (A,6 G,2 | F,8) D,8 | (E,6 F,2 G,8 | C,8) G,,8 | z4 G,8 F,4 | E,8 D,8 | %8
w: |De-|i Ma\- *|* ter|al\- * *|* ma,|De- i|Ma- ter|
 (A,6 G,2 F,4 D,4 | A,,16) | D,16 | F,16 | E,8 (G,8 | A,8) A,8 | (D,6 E,2 F,8) | C,16- | C,8 z8 | %17
w: al\- * * *||ma,|At-|que sem\-|* per|Vir\- * *|go,||
 z16 | z16 | z4 E,8 E,4 | F,8 F,8 | D,8 C,8 | G,16 | G,8 A,8 | A,8 (F,6 E,2 | %25
w: ||at- que|sem- per|Vir- go,|Fe-|lix coe-|li por\- *|
 D,6 E,2 F,2 D,2 F,2 G,2 | A,8 A,,8) | D,16 || D,12 D,4 | F,8 E,8 | G,16 | D,16 | z4 A,8 A,4 | %33
w: ||ta.|Su- mens|il- lud|A-|ve,|Ga- bri-|
 G,8 D,8 | F,16 | C,4 C,8 C,4 | D,8 D,8 | E,16 | A,,16 ||[M:3/1] A,16 G,8 | ^F,16 F,8 | %41
w: e- lis|o-|re, Ga- bri-|e- lis|o-|re,|Fun- da|nos in|
 (G,16 F,8- |[M:3/1] F,8 E,16) | D,24 | z8 D,8 E,8 | (F,16 C,8 | D,12 C,4) _B,,8- | B,,8 C,16 | %48
w: pa\- *||ce,|Mu- tans|E\- *|* * vae|* no-|
 F,,16 z8 | z16 x8 | z16 x8 | z16 x8 | z8 A,8 G,8 | (F,12 E,4) D,8 | A,16 A,,8 | z8 A,8 A,8 | %56
w: men,||||mu- tans|E\- * vae|no- men,|mu- tans|
 (_B,12 A,4) G,8- | G,8 A,16 | D,24 || z8 A,8- | A,8 G,8 | E,8 F,8 | (E,16 | D,16 | E,16) | A,,16 | %66
w: E\- * vae|* no-|men.|Sol\-|* ve|vin- cla|re\-|||is,|
 z16 | z16 | z16 | A,12 A,4 | D,8 E,8 | (G,6 F,2 E,8 | D,6 E,2 F,8) | C,16 | z16 | z16 | z16 | %77
w: |||Pro- fer|lu- men|cae\- * *||cis,||||
 z8 z4 (F,4- | F,4 E,2 D,2 E,6 F,2 | G,8) G,8 | (A,6 G,2 F,8) | E,8 D,8 | C,16 | (E,16 | %84
w: ma\-||* la|no\- * *|stra pel-|le,|Bo\-|
 G,8 A,6 G,2) | F,4 F,8 F,4 | (G,12 F,4 | E,8) D,8- | D,8 z8 | z16 | z16 | z4 A,8 G,4 | F,8 E,8 | %93
w: |na cun- cta|po\- *|* sce,||||bo- na|cun- cta|
 (D,6 E,2 F,4 D,4 | A,8 A,,8) | D,16 || z16 | z16 | z16 | z16 | z16 | z16 | z16 | A,16 | D,8 D,8 | %105
w: po\- * * *||sce.||||||||Mon-|stra te|
 F,8 F,8 | A,16 | E,8 F,8 | F,4 F,8 E,4 | D,16 | C,16 | z16 | z8 z4 F,4- | F,4 (E,2 D,2) E,4 E,4 | %114
w: es- se|ma-|trem, su-|mat per te|pre-|ces,||Qui|* pro * no- bis|
 (G,12 E,4 | D,6 E,2 F,8) | C,8 D,8- | D,4 ^C,4 D,8- | D,4 =C,4 B,,8 | A,,16 | z4 D,8 D,4 | %121
w: na\- *||tus, Tu\-|* lit es\-|* se tu-|us,|qui pro|
 F,8 E,8 | (G,8 A,6 B,2 | C8) G,8- | G,8 z8 | z16 | z8 z4 A,4- | A,4 A,4 F,8 | D,8 A,,8 | D,16 || %130
w: no- bis|na\- * *|* tus,|||tu\-|* lit es-|se tu-|us.|
 z16 | z16 | z16 | z16 | z4 A,8 A,4 | (G,8 A,6 G,2 | F,6 E,2 D,8 | E,6 F,2 G,8) | C,8 G,8 | %139
w: ||||In- ter|o\- * *|||mnes mi-|
 G,,4 G,8 F,4 | (E,8 D,2 E,2 F,2 D,2 | A,6 G,2 F,4) D,4 | A,,16 | D,16 | (F,16 | E,8 G,8) | %146
w: tis, in- ter|o\- * * * *|* * * mnes|mi-|tis,|Nos||
 A,8 A,4 A,4 | (D,6 E,2 F,8) | C,16- | C,8 z8 | z16 | z16 | z8 E,8 | F,8 F,4 F,4 | D,8 C,8 | E,16 | %156
w: cul- pis so-|lu\- * *|tos||||nos|cul- pis so-|lu- tos|mi-|
 G,8 A,8- | A,4 A,4 (F,6 E,2 | D,6 E,2 F,2 D,2 F,2 G,2 | A,8 A,,8) | D,16 || z8 A,8- | A,8 G,8 | %163
w: tes fac|* et ca\- *|||stos.|Vi\-|* tam|
 (E,8 F,8 | E,16) | D,16 | E,16 | A,,16 | z16 | z16 | z16 | A,12 A,4 | (D,8 E,6 F,2 | %173
w: prae\- *||sta|pu-|ram,||||I- ter|pa\- * *|
 G,6 F,2 E,8) | D,8 F,8 | C,16 | z16 | z16 | z16 | z8 z4 F,4- | F,4 (E,2 D,2) (E,6 F,2 | G,8) G,8 | %182
w: |ra tu-|tum,||||Ut|* vi\- * den\- *|* tes|
 (A,6 G,2 F,8 | E,8 D,8) | C,16 | (E,16 | G,8 A,6 G,2) | F,4 F,8 F,4 | (G,12 F,4 | E,8 D,8- | %190
w: Je\- * *||sum|Sem\-||per col- lae-|te\- *|* mur,|
 D,8 z8 | z16 | z16 | z4 A,8 G,4 | F,8 E,8 | D,6 E,2 F,4 D,4 | A,8 A,,8) | D,16 || D,8 D,8 | %199
w: |||sem- per|col- lae-|te\- * * *||mur.|Sit laus|
 F,8 E,8 | G,16 | D,16 | z4 A,8 A,4 | G,8 D,8 | F,16 | C,4 C,8 C,4 | D,8 D,8 | E,16 || %208
w: De- o|Pa-|tri,|Sum- mo|Chri- sto|de-|cus, sum- mo|Chri- sto|de-|
[M:3/1] A,,16 A,8 | ^F,12 F,4 F,8 |[M:3/1] (G,16 F,8- | F,8 E,16) | D,16 z8 | z8 D,8 E,8 | %214
w: cus, Spi-|ri- tu- i|San\- *||cto,|Tri- bus|
 (F,16 C,8 | D,12 C,4) _B,,8- | B,,8 C,16 | F,,16 z8 | z16 x8 | z16 x8 | z16 x8 | z8 A,8 G,8 | %222
w: ho\- *|* * nor|* u-|nus,||||Tri- bus|
 (F,12 E,4) D,8 | A,16 A,,8 | z8 A,8 A,8 | (_B,12 A,4) G,8- | G,8 A,16 | D,24 | G,16 ^F,8- | %229
w: ho\- * nor|u- nus,|Tri- bus|ho\- * nor|* u-|nus,|A- men,|
 F,8 G,16 | !fermata!D,24 |] %231
w: * A-|men.|

